X:1
Q:1/4=114
L:1/8
M:1/8
K:C clef=G2
V:1
%%MIDI program 52
D31/32|G-|G31/32|G-|
G31/64G31/64|G-|G31/32|A-|
A31/64A31/64|^A-|^A31/32|G-|
G31/64G31/64|D-|D31/32|z|
D31/32|^D-|^D31/32|^D-|
^D31/64F31/64|G-|G31/32|F-|
F31/64^D31/64|G-|G31/32|G-|
G31/32|z|z|z|
D31/32|A-|A31/32|A-|
A31/64^A31/64|c-|c31/32|c-|
c31/64^A31/64|A-|A31/32|A-|
A31/64^A31/64|c-|c31/32|z|
d31/32|d-|d31/32|d-|
d31/64d31/64|d-|d31/32|d-|
d31/64d31/64|d-|d-|d-|
d31/32|d-|d31/32|z|
F31/32|^A31/32|^A31/32|z|
c31/32|d-|d31/32|d31/32|
G31/32|c-|c31/32|c31/32|
d31/32|^d-|^d31/32|^d31/32|
c31/32|d-|d31/32|d31/32|
^d31/32|f-|f31/32|^f-|
^f31/64^f31/64|[g-]|[g]||[g-d-]|
[gd]31/64[gd]31/64|^d-|^d31/32|^A-|
^A3/8^A3/4|[^d-g-]|[^dg]31/32|^A-|
^A3/8^A3/4|[d-f-]|[df]31/32|^A-|
^A3/8^A3/4|[c-^d-]|[c^d]31/32|G-|
G3/8G3/4|d-|d31/32|z|
d31/32|e-|e31/32|e-|
e31/64e31/64|^f-|^f31/32|g-|
g31/64^g31/64|a-|a31/32|a-|
a31/64a31/64|a31/32|z|z|
z|z|z|z|
z|z|z|z|
D31/32|G-|G31/32|G-|
G31/64G31/64|G-|G31/32|A-|
A31/64A31/64|^A-|^A31/32|G-|
G31/64G31/64|D-|D31/32|z|
D31/32|^D-|^D31/32|^D-|
^D31/64F31/64|G-|G31/32|F-|
F31/64^D31/64|G-|G31/32|G-|
G31/32|z|z|z|
D31/32|A-|A31/32|A-|
A31/64^A31/64|c-|c31/32|c-|
c31/64^A31/64|A-|A31/32|A-|
A31/64^A31/64|c-|c31/32|z|
d31/32|d-|d31/32|d-|
d31/64d31/64|d-|d31/32|d-|
d31/64d31/64|d-|d-|d-|
d31/32|d-|d31/32|z|
F31/32|^A31/32|^A31/32|z|
c31/32|d-|d31/32|d31/32|
G31/32|c-|c31/32|c31/32|
d31/32|^d-|^d31/32|^d31/32|
c31/32|d-|d31/32|d31/32|
^d31/32|f-|f31/32|^f-|
^f31/64^f31/64|[g-]|[g]||[g-d-]|
[gd]31/64[gd]31/64|^d-|^d31/32|^A-|
^A3/8^A3/4|[^d-g-]|[^dg]31/32|^A-|
^A3/8^A3/4|[d-f-]|[df]31/32|^A-|
^A3/8^A3/4|[c-^d-]|[c^d]31/32|G-|
G3/8G3/4|d-|d31/32|z|
d31/32|e-|e31/32|e-|
e31/64e31/64|^f-|^f31/32|g-|
g31/64^g31/64|a-|a31/32|a-|
a31/64a31/64|a31/32|z7/8
L:1/8
M:1/8
K:C clef=G2
V:2
%%MIDI program 0
D15/16|[^A,-G-]|[^A,G]7/8z/8|[C-G-]|
[CG]7/16[CG]15/32|[D-G-]|[DG]7/8z/8|[C-D-^F-A-]|
[CD^FA]7/16A15/32|[D-^A-]|[D^A]7/8z/8|[C-^D-G-]|
[C^DG]7/16A15/32|D-|D7/8z/8|z|
D15/16|[C-^D-]|[C^D]7/8z/8|[C-^D-]|
[C^D]7/16[DF]15/32|[D-G-]|[DG]7/8z/8|[C-F-]|
[CF]7/16^D15/32|[G-C-^D-]|[GC^D]7/8z/8|[G-^A,-]|
[G^A,]7/16[C-G]3/8|D-|D7/8z/8|z|
D15/16|[C-^D-A-]|[C^DA]7/8z/8|[C-^D-A-]|
[C^DA]7/16^A15/32|[^D-G-c-]|[^DGc]7/8z/8|[D-G-c-]|
[DGc]7/16^A15/32|[C-^D-A-]|[C^DA]7/8z/8|[C-G-A-]|
[CGA]7/16^A15/32|[D-^F-c-]|[D^Fc]7/8z/8|[Dd]15/16|
[Dd]15/16|[D-d-]|[Dd]7/8z/8|[D-d-]|
[Dd]7/16[Dd]15/32|[D-d-]|[Dd]7/8z/8|[D-c-d-]|
[Dcd]7/16[D^Ad]15/32|[DAd]15/16|[A,E]15/32[A,E]15/32|[D^F]15/32[A,E]15/32|
[D^F]15/32[EG]15/32|[^F-A-]|[^FA]7/8z/8|[A,CEF]15/16|
F15/16|[DF^A]15/16|[DF^A]15/16|z|
[FAc]15/16|[F-^A-d-]|[F^Ad]7/8z/8|[G^Ad]15/16|
G15/16|[C-^D-G-c-]|[C^DGc]7/8z/8|[C^Dc]15/16|
[DGd]15/16|[^D-G-c-^d-]|[^DGc^d]7/8z/8|[Gc^d]15/16|
[FAc]15/16|[F-^A-d-]|[F^Ad]7/8z/8|[F^Ad]15/16|
[Fc^d]15/16|[F-d-f-]|[Fdf]7/8z/8|[^F-c-d-^f-]|
[^Fcd^f]7/16[^Fcd^f]15/32|[B-d-g-]|[Bdg]7/8z/8|[B-d-]|
[Bd]7/16[Bd]15/32|[c-^d-]|[c^d]7/8z/8|[B-d-f-^a-]|
[Bdf^a]/4[Bdf^a]3/4|[^A-^d-g-]|[^A^dg]7/8z/8|^A-|
^A/4^A3/4|[^A-d-f-]|[^Adf]7/8z/8|^A-|
^A/4^A3/4|[G-c-^d-]|[Gc^d]7/8z/8|G-|
G/4G3/4|[^F-A-d-]|[^FAd]7/8z/8|z|
[^FAd]15/16|[G-^A-e-]|[G^Ae]7/8z/8|[G-^A-e-]|
[G^Ae]7/16[G^Ae]15/32|[A-d-^f-]|[Ad^f]7/8z/8|[G-d-g-]|
[Gdg]7/16[^Gd^g]15/32|[A-^c-e-a-]|[A^cea]7/8z/8|[A-a-]|
[Aa]7/16[Aa]15/32|[a-A]15/16|[a-A]15/32[A-a]3/8|B15/16|
[A^c]15/16|[^F-d-]|[^Fd]7/8z/8|[^F-A-]|
[^FA]7/16[^FA]15/32|[G-d-]|[Gd]7/8z/8|[D^F]15/16|
D15/16|[^A,-G-]|[^A,G]7/8z/8|[C-G-]|
[CG]7/16[CG]15/32|[D-G-]|[DG]7/8z/8|[C-D-^F-A-]|
[CD^FA]7/16A15/32|[D-^A-]|[D^A]7/8z/8|[C-^D-G-]|
[C^DG]7/16A15/32|D-|D7/8z/8|z|
D15/16|[C-^D-]|[C^D]7/8z/8|[C-^D-]|
[C^D]7/16[DF]15/32|[D-G-]|[DG]7/8z/8|[C-F-]|
[CF]7/16^D15/32|[G-C-^D-]|[GC^D]7/8z/8|[G-^A,-]|
[G^A,]7/16[C-G]3/8|D-|D7/8z/8|z|
D15/16|[C-^D-A-]|[C^DA]7/8z/8|[C-^D-A-]|
[C^DA]7/16^A15/32|[^D-G-c-]|[^DGc]7/8z/8|[D-G-c-]|
[DGc]7/16^A15/32|[C-^D-A-]|[C^DA]7/8z/8|[C-G-A-]|
[CGA]7/16^A15/32|[D-^F-c-]|[D^Fc]7/8z/8|[Dd]15/16|
[Dd]15/16|[D-d-]|[Dd]7/8z/8|[D-d-]|
[Dd]7/16[Dd]15/32|[D-d-]|[Dd]7/8z/8|[D-c-d-]|
[Dcd]7/16[D^Ad]15/32|[DAd]15/16|[A,E]15/32[A,E]15/32|[D^F]15/32[A,E]15/32|
[D^F]15/32[EG]15/32|[^F-A-]|[^FA]7/8z/8|[A,CEF]15/16|
F15/16|[DF^A]15/16|[DF^A]15/16|z|
[FAc]15/16|[F-^A-d-]|[F^Ad]7/8z/8|[G^Ad]15/16|
G15/16|[C-^D-G-c-]|[C^DGc]7/8z/8|[C^Dc]15/16|
[DGd]15/16|[^D-G-c-^d-]|[^DGc^d]7/8z/8|[Gc^d]15/16|
[FAc]15/16|[F-^A-d-]|[F^Ad]7/8z/8|[F^Ad]15/16|
[Fc^d]15/16|[F-d-f-]|[Fdf]7/8z/8|[^F-c-d-^f-]|
[^Fcd^f]7/16[^Fcd^f]15/32|[B-d-g-]|[Bdg]7/8z/8|[B-d-]|
[Bd]7/16[Bd]15/32|[c-^d-]|[c^d]7/8z/8|[B-d-f-^a-]|
[Bdf^a]/4[Bdf^a]3/4|[^A-^d-g-]|[^A^dg]7/8z/8|^A-|
^A/4^A3/4|[^A-d-f-]|[^Adf]7/8z/8|^A-|
^A/4^A3/4|[G-c-^d-]|[Gc^d]7/8z/8|G-|
G/4G3/4|[^F-A-d-]|[^FAd]7/8z/8|z|
[^FAd]15/16|[G-^A-e-]|[G^Ae]7/8z/8|[G-^A-e-]|
[G^Ae]7/16[G^Ae]15/32|[A-d-^f-]|[Ad^f]7/8z/8|[G-d-g-]|
[Gdg]7/16[^Gd^g]15/32|[A-^c-e-a-]|[A^cea]7/8z/8|[A-a-]|
[Aa]7/16[Aa]15/32|[A-a-]|[Aa]7/8
L:1/8
M:1/8
K:C clef=F4
V:3
%%MIDI program 0
[D,,D,]15/16|[G,,,-G,,-]|[G,,,G,,]7/8z/8|[A,,,-A,,-]|
[A,,,A,,]7/16[A,,,A,,]15/32|[^A,,,-^A,,-]|[^A,,,^A,,]7/8z/8|[A,,,-A,,-]|
[A,,,A,,]7/8z/8|[G,,,-G,,-]|[G,,,G,,]7/8z/8|[C,,-C,-]|
[C,,C,]7/8z/8|[D,,-D,-]|[D,,D,]7/8z/8|z|
z|[C,,C,]15/8|z|[G,,,-G,,-]|
[G,,,G,,]7/8z/8|[C,,-C,-]|[C,,C,]7/8z/8|[^G,,-^G,-]|
[^G,,^G,]7/8z/8|[C,-C-]|[C,C]7/8z/8|[G,,,-G,,-]|
[G,,,G,,]7/16[A,,,A,,]15/32|[^A,,,-^A,,-]|[^A,,,^A,,]7/8z/8|[G,,,-G,,-]|
[G,,,G,,]7/8z/8|[C,,-C,-]|[C,,C,]7/8z/8|[G,,,-G,,-]|
[G,,,G,,]7/8z/8|[A,,,-A,,-]|[A,,,A,,]7/8z/8|[^A,,,-^A,,-]|
[^A,,,^A,,]7/8z/8|[C,,-C,-]|[C,,C,]7/8z/8|[^D,,-^D,-]|
[^D,,^D,]7/8z/8|[D,,-D,-]|[D,,D,]7/8z/8|z|
[D,,D,]15/16|[D,,-D,-]|[D,,D,]7/8z/8|[C,,-C,-]|
[C,,C,]7/16[C,,C,]15/32|[^A,,,-^A,,-]|[^A,,,^A,,]7/8z/8|[A,,,-A,,-]|
[A,,,A,,]7/16[G,,,G,,]15/32|[D,,D,]7/32[D,,D,]7/32[D,,D,]7/32[D,,D,]7/32|[D,,D,]7/32[D,,D,]7/32[D,,D,]7/32[D,,D,]7/32|[D,,D,]7/32[D,,D,]7/32[D,,D,]7/32[D,,D,]7/32|
(5:4[D,,D,]/4[D,,D,]7/32[D,,D,]7/32[D,,D,]7/32|[D,,-D,-]|[D,,D,]7/8z/8|[F,,-F,-]|
[F,,F,]7/8z/8|[^A,,,^A,,]15/16|[^A,,,^A,,]15/16|z|
[F,,F,]15/16|[^A,,^A,]15/16|[A,,A,]15/16|[G,,G,]15/16|
[F,,F,]15/16|[^D,,^D,]15/16|[C,,C,]15/16|[^D,,^D,]15/16|
[G,,G,]15/16|[C,C]15/16|[C,,C,]15/16|z|
[^D,^D]15/16|[D,-D-]|[D,D]7/8z/8|[D,D]15/16|
[C,C]15/16|[^A,,-^A,-]|[^A,,^A,]7/8z/8|[^G,,-^G,-]|
[^G,,^G,]7/8z/8|[G,,-G,-]|[G,,G,]7/8z/8|[G,,-G,-]|
[G,,G,]7/16[G,,G,]15/32|[C,-C-]|[C,C]7/8z/8|[^A,,-^A,-]|
[^A,,^A,]7/8z/8|[^D,,^D,]15/16|^A,15/32^A,15/32|^A,-|
^A,7/8z/8|[^A,,,^A,,]15/16|^A,15/32^A,15/32|^A,-|
^A,7/8z/8|[C,,C,]15/16|G,15/32G,15/32|G,-|
G,7/8z/8|[D,,D,]15/16|A,15/32A,15/32|[^F,D]15/16|
[D,D]15/16|[D,-D-]|[D,D]7/8z/8|[^C,-^C-]|
[^C,^C]7/8z/8|[C,-C-]|[C,C]7/8z/8|[B,,-B,-]|
[B,,B,]7/16[^A,,^A,]15/32|[A,,-A,-]|[A,,A,]7/8z/8|[A,,,-A,,-]|
[A,,,A,,]7/8z/8|[A,,,-A,,-]|[A,,,A,,]7/8z/8|[A,,,-A,,-]|
[A,,,A,,]7/8z/8|[D,,-D,-]|[D,,D,]7/8z/8|[C,,-C,-]|
[C,,C,]7/8z/8|[^A,,,-^A,,-]|[^A,,,^A,,]7/8z/8|[A,,,-A,,-]|
[A,,,A,,]7/8z/8|[G,,,-G,,-]|[G,,,G,,]7/8z/8|[A,,,-A,,-]|
[A,,,A,,]7/16[A,,,A,,]15/32|[^A,,,-^A,,-]|[^A,,,^A,,]7/8z/8|[A,,,-A,,-]|
[A,,,A,,]7/8z/8|[G,,,-G,,-]|[G,,,G,,]7/8z/8|[C,,-C,-]|
[C,,C,]7/8z/8|[D,,-D,-]|[D,,D,]7/8z/8|z|
z|[C,,-C,-]|[C,,C,]7/8z/8|[G,,,-G,,-]|
[G,,,G,,]7/8z/8|[C,,-C,-]|[C,,C,]7/8z/8|[^G,,-^G,-]|
[^G,,^G,]7/8z/8|[C,-C-]|[C,C]7/8z/8|[G,,,-G,,-]|
[G,,,G,,]7/16[A,,,A,,]15/32|[^A,,,-^A,,-]|[^A,,,^A,,]7/8z/8|[G,,,-G,,-]|
[G,,,G,,]7/8z/8|[C,,-C,-]|[C,,C,]7/8z/8|[G,,,-G,,-]|
[G,,,G,,]7/8z/8|[A,,,-A,,-]|[A,,,A,,]7/8z/8|[^A,,,-^A,,-]|
[^A,,,^A,,]7/8z/8|[C,,-C,-]|[C,,C,]7/8z/8|[^D,,-^D,-]|
[^D,,^D,]7/8z/8|[D,,-D,-]|[D,,D,]7/8z/8|z|
[D,,D,]15/16|[D,,-D,-]|[D,,D,]7/8z/8|[C,,-C,-]|
[C,,C,]7/16[C,,C,]15/32|[^A,,,-^A,,-]|[^A,,,^A,,]7/8z/8|[A,,,-A,,-]|
[A,,,A,,]7/16[G,,,G,,]15/32|[D,,D,]7/32[D,,D,]7/32[D,,D,]7/32[D,,D,]7/32|[D,,D,]7/32[D,,D,]7/32[D,,D,]7/32[D,,D,]7/32|[D,,D,]7/32[D,,D,]7/32[D,,D,]7/32[D,,D,]7/32|
(5:4[D,,D,]/4[D,,D,]7/32[D,,D,]7/32[D,,D,]7/32|[D,,-D,-]|[D,,D,]7/8z/8|[F,,-F,-]|
[F,,F,]7/8z/8|[^A,,,^A,,]15/16|[^A,,,^A,,]15/16|z|
[F,,F,]15/16|[^A,,^A,]15/16|[A,,A,]15/16|[G,,G,]15/16|
[F,,F,]15/16|[^D,,^D,]15/16|[C,,C,]15/16|[^D,,^D,]15/16|
[G,,G,]15/16|[C,C]15/16|[C,,C,]15/16|z|
[^D,^D]15/16|[D,-D-]|[D,D]7/8z/8|[D,D]15/16|
[C,C]15/16|[^A,,-^A,-]|[^A,,^A,]7/8z/8|[^G,,-^G,-]|
[^G,,^G,]7/8z/8|[G,,-G,-]|[G,,G,]7/8z/8|[G,,-G,-]|
[G,,G,]7/16[G,,G,]15/32|[C,-C-]|[C,C]7/8z/8|[^A,,-^A,-]|
[^A,,^A,]7/8z/8|[^D,,^D,]15/16|^A,15/32^A,15/32|^A,-|
^A,7/8z/8|[^A,,,^A,,]15/16|^A,15/32^A,15/32|^A,-|
^A,7/8z/8|[C,,C,]15/16|G,15/32G,15/32|G,-|
G,7/8z/8|[D,,D,]15/16|A,15/32A,15/32|[^F,D]15/16|
[D,D]15/16|[D,-D-]|[D,D]7/8z/8|[^C,-^C-]|
[^C,^C]7/8z/8|[C,-C-]|[C,C]7/8z/8|[B,,-B,-]|
[B,,B,]7/16[^A,,^A,]15/32|[A,,-A,-]|[A,,A,]7/8z/8|[A,,,-A,,-]|
[A,,,A,,]7/8z/8|[A,,,-A,,-]|[A,,,A,,]7/8


